build/img-landing/svg/cap10.svg

<svg width="65" height="65" viewBox="0 0 65 65" fill="none" xmlns="http://www.w3.org/2000/svg">
<path d="M13.0001 26.5438C10.6074 26.5438 8.66248 28.4887 8.66248 30.8814C8.66248 33.2741 10.6074 35.219 13.0001 35.219C15.3928 35.219 17.3377 33.2741 17.3377 30.8814C17.3377 28.4887 15.3928 26.5438 13.0001 26.5438ZM13.0001 33.0438C11.8101 33.0438 10.8377 32.0714 10.8377 30.8814C10.8377 29.6914 11.8101 28.719 13.0001 28.719C14.19 28.719 15.1625 29.6914 15.1625 30.8814C15.1625 32.0714 14.19 33.0438 13.0001 33.0438Z" fill="#E30613"/>
<path d="M46.9459 12.5586C45.9478 6.37844 40.5866 1.6314 34.125 1.6314C27.7913 1.6314 22.5197 6.18652 21.3681 12.1747C20.3573 12.4946 19.372 12.8529 18.4124 13.2495C16.4291 10.0635 12.9744 8.1186 9.17421 8.1186C8.13779 8.1186 7.10138 8.27214 6.09055 8.56644L2.57185 9.60285L6.09055 10.6393C8.99508 11.4966 11.2726 13.8637 12.0531 16.7682C8.64961 19.1993 5.98819 22.1806 4.31201 25.4434H3.25C1.45866 25.469 0 26.9277 0 28.719V39.5438C0 41.3351 1.45866 42.7938 3.25 42.7938H4.31201C6.33366 46.722 9.68602 50.1639 14.0876 52.7997V63.3686H22.75V56.4975C28.9557 58.2377 35.8524 58.4296 42.25 57.0349V63.3686H50.9124V54.0025C59.7539 49.5881 65 42.1924 65 34.1314C65 24.906 57.9242 16.4739 46.9459 12.5586ZM34.125 3.7938C40.1004 3.7938 44.9626 8.656 44.9626 14.6314C44.9626 17.5103 43.8622 20.1845 41.8661 22.219H34.7648V20.6324C35.8652 20.466 36.7224 20.0438 37.3494 19.3401C37.9636 18.6363 38.2835 17.779 38.2835 16.7554C38.2835 15.8469 38.0404 15.092 37.5413 14.5034C37.0423 13.9149 36.1211 13.4414 34.7648 13.0832V9.76919C35.3022 9.99951 35.6476 10.4473 35.7884 11.1255L37.938 10.844C37.7844 9.99951 37.4518 9.32136 36.9144 8.82234C36.3898 8.31053 35.6732 8.01624 34.7648 7.90108V7.0438H33.5236V7.88829C32.564 7.99065 31.7835 8.34892 31.1949 8.97589C30.6063 9.60285 30.312 10.3834 30.312 11.3174C30.312 12.2259 30.5679 13.0064 31.0797 13.6462C31.6043 14.2987 32.4104 14.7721 33.5108 15.092V18.6491C33.2037 18.4956 32.935 18.2653 32.6919 17.9326C32.4488 17.6127 32.2697 17.216 32.1801 16.7682L29.9665 17.0113C30.1329 18.1245 30.5167 18.9818 31.1309 19.596C31.7323 20.1973 32.5256 20.5684 33.498 20.6964V22.2318H26.3583C24.3622 20.1973 23.2618 17.5231 23.2618 14.6442C23.2874 8.656 28.1496 3.7938 34.125 3.7938ZM34.7648 18.7643V15.4631C35.2766 15.6038 35.6476 15.8214 35.8652 16.0901C36.0955 16.3588 36.1978 16.6914 36.1978 17.0625C36.1978 17.4847 36.0699 17.8686 35.8012 18.1629C35.5325 18.47 35.187 18.6875 34.7648 18.7643ZM33.5364 9.7436V12.6737H33.5236C33.1654 12.5074 32.8839 12.3027 32.7175 12.0468C32.5384 11.8036 32.436 11.5221 32.436 11.2151C32.436 10.8952 32.5384 10.5881 32.7431 10.3194C32.935 10.0507 33.2037 9.85876 33.5364 9.7436ZM49.3642 52.3647L48.75 52.659V61.219H44.4124V54.284L43.0561 54.6294C39.998 55.4099 36.7992 55.8066 33.5748 55.8066C29.5699 55.8066 25.6673 55.2052 21.9823 54.028L20.562 53.5674V61.219H16.25V51.5586L15.7126 51.2515C11.1959 48.654 7.83071 45.1993 5.9626 41.2584L5.66831 40.6314H3.25C2.64862 40.6314 2.1624 40.1452 2.1624 39.5438V28.7062C2.1624 28.1048 2.64862 27.6186 3.25 27.6186H5.66831L5.9626 26.9916C7.53642 23.6393 10.2746 20.5812 13.8701 18.1373L14.4587 17.7406L14.3307 17.0497C13.8445 14.3499 12.3218 11.97 10.185 10.3322C13.0896 10.6649 15.6358 12.4306 16.9665 15.1048L17.4272 16.0389L18.374 15.6038C19.2569 15.2072 20.1782 14.8489 21.1122 14.529C21.1122 14.5546 21.1122 14.5802 21.1122 14.6058C21.1122 17.3824 21.9695 19.9926 23.5561 22.1934H21.6496V24.3558H25.501H42.7362H46.5876V22.1934H44.6939C46.2165 20.095 47.061 17.5871 47.1122 14.9129C56.6959 18.6363 62.8376 26.0576 62.8376 34.1058C62.8376 41.5271 57.7963 48.3342 49.3642 52.3647Z" fill="#E30613"/>
</svg>

<svg width="65" height="65" viewBox="0 0 65 65" fill="none" xmlns="http://www.w3.org/2000/svg"><path d="M13 26.544a4.341 4.341 0 0 0-4.338 4.337A4.341 4.341 0 0 0 13 35.22a4.341 4.341 0 0 0 4.338-4.338A4.341 4.341 0 0 0 13 26.544zm0 6.5a2.168 2.168 0 0 1-2.162-2.163c0-1.19.972-2.162 2.162-2.162s2.162.972 2.162 2.162-.972 2.163-2.162 2.163z" fill="#E30613"/><path d="M46.946 12.559c-.998-6.18-6.36-10.928-12.821-10.928-6.334 0-11.605 4.556-12.757 10.544-1.01.32-1.996.678-2.956 1.074a10.837 10.837 0 0 0-9.238-5.13 11.03 11.03 0 0 0-3.083.447L2.57 9.603l3.52 1.036c2.904.858 5.182 3.225 5.962 6.13-3.403 2.43-6.065 5.412-7.741 8.674H3.25C1.459 25.47 0 26.928 0 28.72v10.825a3.255 3.255 0 0 0 3.25 3.25h1.062c2.022 3.928 5.374 7.37 9.776 10.006V63.37h8.662v-6.871c6.206 1.74 13.102 1.932 19.5.537v6.334h8.662v-9.367C59.754 49.588 65 42.192 65 34.132c0-9.226-7.076-17.658-18.054-21.573zM34.125 3.794c5.975 0 10.838 4.862 10.838 10.837 0 2.88-1.1 5.553-3.097 7.588h-7.101v-1.587c1.1-.166 1.957-.588 2.584-1.292.615-.704.934-1.561.934-2.585 0-.908-.243-1.663-.742-2.252-.499-.588-1.42-1.062-2.776-1.42V9.77c.537.23.883.678 1.023 1.357l2.15-.282c-.154-.844-.486-1.523-1.024-2.022-.524-.511-1.24-.806-2.15-.92v-.858h-1.24v.844c-.96.103-1.74.46-2.33 1.088-.588.627-.882 1.407-.882 2.341 0 .909.256 1.69.768 2.33.524.652 1.33 1.125 2.43 1.445v3.557a2.258 2.258 0 0 1-.818-.716 2.842 2.842 0 0 1-.512-1.165l-2.213.243c.166 1.114.55 1.97 1.164 2.585.601.601 1.395.972 2.367 1.1v1.536h-7.14a10.736 10.736 0 0 1-3.096-7.588c.025-5.988 4.888-10.85 10.863-10.85zm.64 14.97v-3.3c.512.14.883.357 1.1.626.23.269.333.601.333.973 0 .422-.128.806-.397 1.1a1.784 1.784 0 0 1-1.036.601zm-1.229-9.02v2.93h-.012c-.359-.167-.64-.371-.806-.627a1.387 1.387 0 0 1-.282-.832c0-.32.102-.627.307-.896.192-.268.46-.46.793-.575zm15.828 42.62l-.614.295v8.56h-4.338v-6.935l-1.356.345a38.419 38.419 0 0 1-9.481 1.178c-4.005 0-7.908-.602-11.593-1.779l-1.42-.46v7.651H16.25v-9.66l-.537-.307c-4.517-2.598-7.882-6.053-9.75-9.994l-.295-.627H3.25a1.087 1.087 0 0 1-1.088-1.087V28.706c0-.601.487-1.087 1.088-1.087h2.418l.295-.627c1.573-3.353 4.312-6.41 7.907-8.855l.589-.396-.128-.691c-.486-2.7-2.01-5.08-4.146-6.718a8.655 8.655 0 0 1 6.781 4.773l.461.934.947-.435a32.04 32.04 0 0 1 2.738-1.075v.077c0 2.776.858 5.387 2.444 7.587H21.65v2.163h24.938v-2.163h-1.894c1.523-2.098 2.367-4.606 2.418-7.28 9.584 3.723 15.726 11.145 15.726 19.193 0 7.421-5.042 14.228-13.474 18.259z" fill="#E30613"/></svg>
